src/lib/packages/icons/src/assets/filled/angles-up.svg

<svg width="24" height="24" viewBox="0 0 24 24" fill="none" xmlns="http://www.w3.org/2000/svg">
<path d="M4.29301 12.7071C3.90201 12.3161 3.90201 11.684 4.29301 11.293L11.293 4.29301C11.684 3.90201 12.3161 3.90201 12.7071 4.29301L19.7071 11.293C20.0981 11.684 20.0981 12.3161 19.7071 12.7071C19.5121 12.9021 19.256 13 19 13C18.744 13 18.488 12.9021 18.293 12.7071L12 6.4141L5.70707 12.7071C5.31607 13.0981 4.68401 13.0981 4.29301 12.7071ZM12.7071 11.293C12.3161 10.902 11.684 10.902 11.293 11.293L4.29301 18.293C3.90201 18.684 3.90201 19.3161 4.29301 19.7071C4.68401 20.0981 5.31607 20.0981 5.70707 19.7071L12 13.4141L18.293 19.7071C18.488 19.9021 18.744 20 19 20C19.256 20 19.5121 19.9021 19.7071 19.7071C20.0981 19.3161 20.0981 18.684 19.7071 18.293L12.7071 11.293Z" fill="currentColor"/>
</svg>

<svg xmlns="http://www.w3.org/2000/svg" width="24" height="24" fill="none"><path fill="currentColor" d="M4.293 12.707a.999.999 0 0 1 0-1.414l7-7a.999.999 0 0 1 1.414 0l7 7a.999.999 0 1 1-1.414 1.414L12 6.414l-6.293 6.293a.999.999 0 0 1-1.414 0Zm8.414-1.414a.999.999 0 0 0-1.414 0l-7 7a.999.999 0 1 0 1.414 1.414L12 13.414l6.293 6.293a.997.997 0 0 0 1.414 0 .999.999 0 0 0 0-1.414l-7-7Z"/></svg>
